images/331161.svg

<?xml version="1.0" encoding="UTF-8"?>
<svg xmlns="http://www.w3.org/2000/svg" xmlns:xlink="http://www.w3.org/1999/xlink" width="300pt" height="300pt" viewBox="0 0 300 300" version="1.1">
<defs>
<g>
<symbol overflow="visible" id="glyph0-0">
<path style="stroke:none;" d="M 0.59375 2.125 L 0.59375 -8.46875 L 6.59375 -8.46875 L 6.59375 2.125 Z M 1.265625 1.453125 L 5.9375 1.453125 L 5.9375 -7.78125 L 1.265625 -7.78125 Z M 1.265625 1.453125 "/>
</symbol>
<symbol overflow="visible" id="glyph0-1">
<path style="stroke:none;" d="M 1.171875 -8.75 L 2.765625 -8.75 L 6.65625 -1.4375 L 6.65625 -8.75 L 7.796875 -8.75 L 7.796875 0 L 6.203125 0 L 2.328125 -7.3125 L 2.328125 0 L 1.171875 0 Z M 1.171875 -8.75 "/>
</symbol>
<symbol overflow="visible" id="glyph0-2">
<path style="stroke:none;" d="M 1.171875 -8.75 L 2.359375 -8.75 L 2.359375 -5.15625 L 6.65625 -5.15625 L 6.65625 -8.75 L 7.84375 -8.75 L 7.84375 0 L 6.65625 0 L 6.65625 -4.171875 L 2.359375 -4.171875 L 2.359375 0 L 1.171875 0 Z M 1.171875 -8.75 "/>
</symbol>
<symbol overflow="visible" id="glyph0-3">
<path style="stroke:none;" d="M 4.734375 -7.953125 C 3.867188 -7.953125 3.179688 -7.628906 2.671875 -6.984375 C 2.171875 -6.347656 1.921875 -5.472656 1.921875 -4.359375 C 1.921875 -3.265625 2.171875 -2.394531 2.671875 -1.75 C 3.179688 -1.113281 3.867188 -0.796875 4.734375 -0.796875 C 5.585938 -0.796875 6.265625 -1.113281 6.765625 -1.75 C 7.273438 -2.394531 7.53125 -3.265625 7.53125 -4.359375 C 7.53125 -5.472656 7.273438 -6.347656 6.765625 -6.984375 C 6.265625 -7.628906 5.585938 -7.953125 4.734375 -7.953125 Z M 4.734375 -8.90625 C 5.953125 -8.90625 6.925781 -8.492188 7.65625 -7.671875 C 8.394531 -6.847656 8.765625 -5.742188 8.765625 -4.359375 C 8.765625 -2.984375 8.394531 -1.882812 7.65625 -1.0625 C 6.925781 -0.238281 5.953125 0.171875 4.734375 0.171875 C 3.503906 0.171875 2.519531 -0.238281 1.78125 -1.0625 C 1.039062 -1.882812 0.671875 -2.984375 0.671875 -4.359375 C 0.671875 -5.742188 1.039062 -6.847656 1.78125 -7.671875 C 2.519531 -8.492188 3.503906 -8.90625 4.734375 -8.90625 Z M 4.734375 -8.90625 "/>
</symbol>
<symbol overflow="visible" id="glyph0-4">
<path style="stroke:none;" d="M 7.734375 -8.078125 L 7.734375 -6.828125 C 7.328125 -7.203125 6.898438 -7.476562 6.453125 -7.65625 C 6.003906 -7.84375 5.523438 -7.9375 5.015625 -7.9375 C 4.015625 -7.9375 3.25 -7.628906 2.71875 -7.015625 C 2.1875 -6.398438 1.921875 -5.515625 1.921875 -4.359375 C 1.921875 -3.210938 2.1875 -2.332031 2.71875 -1.71875 C 3.25 -1.101562 4.015625 -0.796875 5.015625 -0.796875 C 5.523438 -0.796875 6.003906 -0.890625 6.453125 -1.078125 C 6.898438 -1.265625 7.328125 -1.539062 7.734375 -1.90625 L 7.734375 -0.671875 C 7.316406 -0.390625 6.875 -0.175781 6.40625 -0.03125 C 5.945312 0.101562 5.460938 0.171875 4.953125 0.171875 C 3.617188 0.171875 2.570312 -0.234375 1.8125 -1.046875 C 1.050781 -1.859375 0.671875 -2.960938 0.671875 -4.359375 C 0.671875 -5.765625 1.050781 -6.875 1.8125 -7.6875 C 2.570312 -8.5 3.617188 -8.90625 4.953125 -8.90625 C 5.472656 -8.90625 5.960938 -8.832031 6.421875 -8.6875 C 6.890625 -8.550781 7.328125 -8.347656 7.734375 -8.078125 Z M 7.734375 -8.078125 "/>
</symbol>
<symbol overflow="visible" id="glyph0-5">
<path style="stroke:none;" d="M 1.125 -9.125 L 2.203125 -9.125 L 2.203125 0 L 1.125 0 Z M 1.125 -9.125 "/>
</symbol>
</g>
</defs>
<g id="surface53597">
<rect x="0" y="0" width="300" height="300" style="fill:rgb(100%,100%,100%);fill-opacity:1;stroke:none;"/>
<path style="fill:none;stroke-width:1.2;stroke-linecap:butt;stroke-linejoin:miter;stroke:rgb(0%,0%,0%);stroke-opacity:1;stroke-miterlimit:10;" d="M 134.054688 112.855469 L 114.355469 136.214844 "/>
<path style="fill:none;stroke-width:1.2;stroke-linecap:butt;stroke-linejoin:miter;stroke:rgb(0%,0%,0%);stroke-opacity:1;stroke-miterlimit:10;" d="M 114.355469 136.214844 L 84.277344 130.832031 "/>
<path style="fill:none;stroke-width:1.2;stroke-linecap:butt;stroke-linejoin:miter;stroke:rgb(0%,0%,0%);stroke-opacity:1;stroke-miterlimit:10;" d="M 110.082031 142.753906 L 86.015625 138.449219 "/>
<path style="fill:none;stroke-width:1.2;stroke-linecap:butt;stroke-linejoin:miter;stroke:rgb(0%,0%,0%);stroke-opacity:1;stroke-miterlimit:10;" d="M 124.734375 164.957031 L 114.355469 136.214844 "/>
<path style="fill:none;stroke-width:1.2;stroke-linecap:butt;stroke-linejoin:miter;stroke:rgb(0%,0%,0%);stroke-opacity:1;stroke-miterlimit:10;" d="M 84.277344 130.832031 L 64.574219 154.191406 "/>
<path style="fill:none;stroke-width:1.2;stroke-linecap:butt;stroke-linejoin:miter;stroke:rgb(0%,0%,0%);stroke-opacity:1;stroke-miterlimit:10;" d="M 84.277344 130.832031 L 79.085938 116.460938 "/>
<path style="fill:none;stroke-width:1.2;stroke-linecap:butt;stroke-linejoin:miter;stroke:rgb(0%,0%,100%);stroke-opacity:1;stroke-miterlimit:10;" d="M 79.085938 116.460938 L 73.898438 102.09375 "/>
<path style="fill:none;stroke-width:1.2;stroke-linecap:butt;stroke-linejoin:miter;stroke:rgb(0%,0%,0%);stroke-opacity:1;stroke-miterlimit:10;" d="M 64.574219 154.191406 L 74.953125 182.929688 "/>
<path style="fill:none;stroke-width:1.2;stroke-linecap:butt;stroke-linejoin:miter;stroke:rgb(0%,0%,0%);stroke-opacity:1;stroke-miterlimit:10;" d="M 72.375 154.621094 L 80.679688 177.613281 "/>
<path style="fill:none;stroke-width:1.2;stroke-linecap:butt;stroke-linejoin:miter;stroke:rgb(0%,0%,0%);stroke-opacity:1;stroke-miterlimit:10;" d="M 74.953125 182.929688 L 105.03125 188.3125 "/>
<path style="fill:none;stroke-width:1.2;stroke-linecap:butt;stroke-linejoin:miter;stroke:rgb(0%,0%,0%);stroke-opacity:1;stroke-miterlimit:10;" d="M 60.539062 209.875 L 74.953125 182.929688 "/>
<path style="fill:none;stroke-width:1.2;stroke-linecap:butt;stroke-linejoin:miter;stroke:rgb(0%,0%,0%);stroke-opacity:1;stroke-miterlimit:10;" d="M 105.03125 188.3125 L 124.734375 164.957031 "/>
<path style="fill:none;stroke-width:1.2;stroke-linecap:butt;stroke-linejoin:miter;stroke:rgb(0%,0%,0%);stroke-opacity:1;stroke-miterlimit:10;" d="M 101.507812 181.34375 L 117.265625 162.65625 "/>
<path style="fill:none;stroke-width:1.2;stroke-linecap:butt;stroke-linejoin:miter;stroke:rgb(0%,0%,0%);stroke-opacity:1;stroke-miterlimit:10;" d="M 105.03125 188.3125 L 109.207031 218.582031 "/>
<path style="fill:none;stroke-width:1.2;stroke-linecap:butt;stroke-linejoin:miter;stroke:rgb(0%,0%,0%);stroke-opacity:1;stroke-miterlimit:10;" d="M 124.734375 164.957031 L 139.773438 167.648438 "/>
<path style="fill:none;stroke-width:1.2;stroke-linecap:butt;stroke-linejoin:miter;stroke:rgb(0%,0%,100%);stroke-opacity:1;stroke-miterlimit:10;" d="M 139.773438 167.648438 L 154.8125 170.335938 "/>
<path style="fill:none;stroke-width:1.2;stroke-linecap:butt;stroke-linejoin:miter;stroke:rgb(0%,0%,100%);stroke-opacity:1;stroke-miterlimit:10;" d="M 154.8125 170.335938 L 164.664062 158.660156 "/>
<path style="fill:none;stroke-width:1.2;stroke-linecap:butt;stroke-linejoin:miter;stroke:rgb(0%,0%,0%);stroke-opacity:1;stroke-miterlimit:10;" d="M 164.664062 158.660156 L 174.511719 146.980469 "/>
<path style=" stroke:none;fill-rule:nonzero;fill:rgb(100%,100%,100%);fill-opacity:1;" d="M 145.8125 163.335938 L 163.8125 163.335938 L 163.8125 177.335938 L 145.8125 177.335938 Z M 145.8125 163.335938 "/>
<g style="fill:rgb(0%,0%,100%);fill-opacity:1;">
  <use xlink:href="#glyph0-1" x="145.8125" y="174.474609"/>
  <use xlink:href="#glyph0-2" x="154.789062" y="174.474609"/>
</g>
<path style="fill:none;stroke-width:1.2;stroke-linecap:butt;stroke-linejoin:miter;stroke:rgb(0%,0%,0%);stroke-opacity:1;stroke-miterlimit:10;" d="M 177.894531 145.757812 L 172.703125 131.386719 "/>
<path style="fill:none;stroke-width:1.2;stroke-linecap:butt;stroke-linejoin:miter;stroke:rgb(100%,0%,0%);stroke-opacity:1;stroke-miterlimit:10;" d="M 172.703125 131.386719 L 167.515625 117.019531 "/>
<path style="fill:none;stroke-width:1.2;stroke-linecap:butt;stroke-linejoin:miter;stroke:rgb(0%,0%,0%);stroke-opacity:1;stroke-miterlimit:10;" d="M 171.132812 148.199219 L 165.941406 133.832031 "/>
<path style="fill:none;stroke-width:1.2;stroke-linecap:butt;stroke-linejoin:miter;stroke:rgb(100%,0%,0%);stroke-opacity:1;stroke-miterlimit:10;" d="M 165.941406 133.832031 L 160.753906 119.460938 "/>
<path style="fill:none;stroke-width:1.2;stroke-linecap:butt;stroke-linejoin:miter;stroke:rgb(0%,0%,0%);stroke-opacity:1;stroke-miterlimit:10;" d="M 174.511719 146.980469 L 204.59375 152.363281 "/>
<path style=" stroke:none;fill-rule:nonzero;fill:rgb(100%,100%,100%);fill-opacity:1;" d="M 154.132812 111.238281 L 164.132812 111.238281 L 164.132812 125.238281 L 154.132812 125.238281 Z M 154.132812 111.238281 "/>
<g style="fill:rgb(100%,0%,0%);fill-opacity:1;">
  <use xlink:href="#glyph0-3" x="154.132812" y="122.376953"/>
</g>
<path style="fill:none;stroke-width:1.2;stroke-linecap:butt;stroke-linejoin:miter;stroke:rgb(0%,0%,0%);stroke-opacity:1;stroke-miterlimit:10;" d="M 204.59375 152.363281 L 214.96875 181.101562 "/>
<path style="fill:none;stroke-width:1.2;stroke-linecap:butt;stroke-linejoin:miter;stroke:rgb(0%,0%,0%);stroke-opacity:1;stroke-miterlimit:10;" d="M 212.390625 152.792969 L 220.695312 175.785156 "/>
<path style="fill:none;stroke-width:1.2;stroke-linecap:butt;stroke-linejoin:miter;stroke:rgb(0%,0%,0%);stroke-opacity:1;stroke-miterlimit:10;" d="M 224.292969 129.003906 L 204.59375 152.363281 "/>
<path style="fill:none;stroke-width:1.2;stroke-linecap:butt;stroke-linejoin:miter;stroke:rgb(0%,0%,0%);stroke-opacity:1;stroke-miterlimit:10;" d="M 214.96875 181.101562 L 245.050781 186.484375 "/>
<path style="fill:none;stroke-width:1.2;stroke-linecap:butt;stroke-linejoin:miter;stroke:rgb(0%,0%,0%);stroke-opacity:1;stroke-miterlimit:10;" d="M 245.050781 186.484375 L 264.75 163.128906 "/>
<path style="fill:none;stroke-width:1.2;stroke-linecap:butt;stroke-linejoin:miter;stroke:rgb(0%,0%,0%);stroke-opacity:1;stroke-miterlimit:10;" d="M 241.523438 179.515625 L 257.285156 160.828125 "/>
<path style="fill:none;stroke-width:1.2;stroke-linecap:butt;stroke-linejoin:miter;stroke:rgb(0%,0%,0%);stroke-opacity:1;stroke-miterlimit:10;" d="M 264.75 163.128906 L 254.371094 134.386719 "/>
<path style="fill:none;stroke-width:1.2;stroke-linecap:butt;stroke-linejoin:miter;stroke:rgb(0%,0%,0%);stroke-opacity:1;stroke-miterlimit:10;" d="M 254.371094 134.386719 L 224.292969 129.003906 "/>
<path style="fill:none;stroke-width:1.2;stroke-linecap:butt;stroke-linejoin:miter;stroke:rgb(0%,0%,0%);stroke-opacity:1;stroke-miterlimit:10;" d="M 250.097656 140.925781 L 226.035156 136.621094 "/>
<path style="fill:none;stroke-width:1.2;stroke-linecap:butt;stroke-linejoin:miter;stroke:rgb(0%,0%,0%);stroke-opacity:1;stroke-miterlimit:10;" d="M 224.292969 129.003906 L 219.105469 114.632812 "/>
<path style="fill:none;stroke-width:1.2;stroke-linecap:butt;stroke-linejoin:miter;stroke:rgb(0%,80%,0%);stroke-opacity:1;stroke-miterlimit:10;" d="M 219.105469 114.632812 L 213.914062 100.265625 "/>
<path style=" stroke:none;fill-rule:nonzero;fill:rgb(100%,100%,100%);fill-opacity:1;" d="M 201.914062 93.265625 L 213.914062 93.265625 L 213.914062 107.265625 L 201.914062 107.265625 Z M 201.914062 93.265625 "/>
<g style="fill:rgb(0%,80%,0%);fill-opacity:1;">
  <use xlink:href="#glyph0-4" x="201.914062" y="104.404297"/>
  <use xlink:href="#glyph0-5" x="210.292969" y="104.404297"/>
</g>
<path style="fill:none;stroke-width:1.2;stroke-linecap:butt;stroke-linejoin:miter;stroke:rgb(0%,0%,0%);stroke-opacity:1;stroke-miterlimit:10;" d="M 109.207031 218.582031 L 81.710938 231.910156 "/>
<path style="fill:none;stroke-width:1.2;stroke-linecap:butt;stroke-linejoin:miter;stroke:rgb(0%,0%,0%);stroke-opacity:1;stroke-miterlimit:10;" d="M 109.207031 218.582031 L 138.875 211.265625 "/>
<path style="fill:none;stroke-width:1.2;stroke-linecap:butt;stroke-linejoin:miter;stroke:rgb(0%,0%,0%);stroke-opacity:1;stroke-miterlimit:10;" d="M 109.207031 218.582031 L 119.585938 247.324219 "/>
<path style="fill:none;stroke-width:1.2;stroke-linecap:butt;stroke-linejoin:miter;stroke:rgb(0%,0%,0%);stroke-opacity:1;stroke-miterlimit:10;" d="M 81.710938 231.910156 L 60.539062 209.875 "/>
<path style="fill:none;stroke-width:1.2;stroke-linecap:butt;stroke-linejoin:miter;stroke:rgb(0%,0%,0%);stroke-opacity:1;stroke-miterlimit:10;" d="M 60.539062 209.875 L 40.839844 233.234375 "/>
<path style="fill:none;stroke-width:1.2;stroke-linecap:butt;stroke-linejoin:miter;stroke:rgb(0%,0%,0%);stroke-opacity:1;stroke-miterlimit:10;" d="M 60.539062 209.875 L 35.25 192.722656 "/>
<path style="fill:none;stroke-width:1.2;stroke-linecap:butt;stroke-linejoin:miter;stroke:rgb(0%,0%,100%);stroke-opacity:1;stroke-miterlimit:10;" d="M 73.898438 102.09375 L 59.222656 97.84375 "/>
<path style="fill:none;stroke-width:1.2;stroke-linecap:butt;stroke-linejoin:miter;stroke:rgb(0%,0%,0%);stroke-opacity:1;stroke-miterlimit:10;" d="M 59.222656 97.84375 L 44.546875 93.59375 "/>
<path style="fill:none;stroke-width:1.2;stroke-linecap:butt;stroke-linejoin:miter;stroke:rgb(0%,0%,0%);stroke-opacity:1;stroke-miterlimit:10;" d="M 91.050781 76.804688 L 82.472656 89.449219 "/>
<path style="fill:none;stroke-width:1.2;stroke-linecap:butt;stroke-linejoin:miter;stroke:rgb(0%,0%,100%);stroke-opacity:1;stroke-miterlimit:10;" d="M 82.472656 89.449219 L 73.898438 102.09375 "/>
<path style=" stroke:none;fill-rule:nonzero;fill:rgb(100%,100%,100%);fill-opacity:1;" d="M 69.898438 95.09375 L 78.898438 95.09375 L 78.898438 109.09375 L 69.898438 109.09375 Z M 69.898438 95.09375 "/>
<g style="fill:rgb(0%,0%,100%);fill-opacity:1;">
  <use xlink:href="#glyph0-1" x="69.898438" y="106.232422"/>
</g>
<path style="fill:none;stroke-width:1.2;stroke-linecap:butt;stroke-linejoin:miter;stroke:rgb(0%,0%,0%);stroke-opacity:1;stroke-miterlimit:10;" d="M 44.546875 93.59375 L 43.558594 63.054688 "/>
<path style="fill:none;stroke-width:1.2;stroke-linecap:butt;stroke-linejoin:miter;stroke:rgb(0%,0%,0%);stroke-opacity:1;stroke-miterlimit:10;" d="M 43.558594 63.054688 L 72.296875 52.675781 "/>
<path style="fill:none;stroke-width:1.2;stroke-linecap:butt;stroke-linejoin:miter;stroke:rgb(0%,0%,0%);stroke-opacity:1;stroke-miterlimit:10;" d="M 72.296875 52.675781 L 91.050781 76.804688 "/>
</g>
</svg>

<svg xmlns="http://www.w3.org/2000/svg" xmlns:xlink="http://www.w3.org/1999/xlink" width="300pt" height="300pt" viewBox="0 0 300 300"><defs><symbol overflow="visible"><path d="M.594 2.125V-8.47h6V2.126zm.672-.672h4.671V-7.78h-4.67zm0 0"/></symbol><symbol overflow="visible" id="a"><path d="M1.172-8.75h1.594l3.89 7.313V-8.75h1.14V0H6.204L2.328-7.313V0H1.172zm0 0"/></symbol><symbol overflow="visible" id="b"><path d="M1.172-8.75H2.36v3.594h4.296V-8.75h1.188V0H6.656v-4.172H2.36V0H1.17zm0 0"/></symbol><symbol overflow="visible" id="c"><path d="M4.734-7.953c-.867 0-1.554.324-2.062.97-.5.635-.75 1.51-.75 2.624 0 1.094.25 1.965.75 2.61.508.637 1.195.953 2.062.953.852 0 1.532-.316 2.032-.953.507-.645.765-1.516.765-2.61 0-1.113-.257-1.988-.764-2.624-.5-.645-1.18-.97-2.032-.97zm0-.953c1.22 0 2.192.414 2.922 1.234.74.824 1.11 1.93 1.11 3.313 0 1.376-.37 2.477-1.11 3.298C6.926-.24 5.953.17 4.734.17c-1.23 0-2.214-.41-2.953-1.234C1.04-1.882.673-2.984.673-4.36c0-1.382.367-2.488 1.11-3.312.738-.82 1.722-1.234 2.952-1.234zm0 0"/></symbol><symbol overflow="visible" id="d"><path d="M7.734-8.078v1.25c-.406-.375-.836-.65-1.28-.828-.45-.188-.93-.282-1.438-.282-1 0-1.766.31-2.297.922-.533.618-.798 1.5-.798 2.657 0 1.15.266 2.028.797 2.64.53.618 1.296.923 2.296.923.507 0 .988-.094 1.437-.28.445-.19.875-.462 1.28-.83V-.67c-.417.28-.858.496-1.327.64-.46.134-.945.204-1.453.204-1.336 0-2.383-.406-3.14-1.22-.762-.81-1.14-1.913-1.14-3.31 0-1.408.378-2.517 1.14-3.33.757-.812 1.804-1.218 3.14-1.218.52 0 1.008.074 1.47.22.468.135.905.338 1.31.608zm0 0"/></symbol><symbol overflow="visible" id="e"><path d="M1.125-9.125h1.078V0H1.125zm0 0"/></symbol></defs><g><path fill="#fff" d="M0 0h300v300H0z"/><path d="M134.055 112.855l-19.7 23.36M114.355 136.215l-30.078-5.383M110.082 142.754l-24.066-4.305M124.734 164.957l-10.38-28.742M84.277 130.832l-19.703 23.36M84.277 130.832l-5.19-14.37" stroke-width="1.2" stroke="#000" stroke-miterlimit="10" fill="none"/><path d="M79.086 116.46l-5.188-14.366" stroke-width="1.2" stroke="#00f" stroke-miterlimit="10" fill="none"/><path d="M64.574 154.19l10.38 28.74M72.375 154.62l8.305 22.993M74.953 182.93l30.078 5.382M60.54 209.875l14.413-26.945M105.03 188.313l19.704-23.356M101.508 181.344l15.758-18.688M105.03 188.313l4.177 30.27M124.734 164.957l15.04 2.69" stroke-width="1.2" stroke="#000" stroke-miterlimit="10" fill="none"/><path d="M139.773 167.648l15.04 2.688M154.813 170.336l9.85-11.676" stroke-width="1.2" stroke="#00f" stroke-miterlimit="10" fill="none"/><path d="M164.664 158.66l9.848-11.68" stroke-width="1.2" stroke="#000" stroke-miterlimit="10" fill="none"/><path d="M145.813 163.336h18v14h-18zm0 0" fill="#fff"/><g fill="#00f"><use xlink:href="#a" x="145.813" y="174.475"/><use xlink:href="#b" x="154.789" y="174.475"/></g><path d="M177.895 145.758l-5.192-14.37" stroke-width="1.2" stroke="#000" stroke-miterlimit="10" fill="none"/><path d="M172.703 131.387l-5.187-14.367" stroke-width="1.2" stroke="#f00" stroke-miterlimit="10" fill="none"/><path d="M171.133 148.2l-5.192-14.368" stroke-width="1.2" stroke="#000" stroke-miterlimit="10" fill="none"/><path d="M165.94 133.832l-5.186-14.37" stroke-width="1.2" stroke="#f00" stroke-miterlimit="10" fill="none"/><path d="M174.512 146.98l30.082 5.383" stroke-width="1.2" stroke="#000" stroke-miterlimit="10" fill="none"/><path d="M154.133 111.238h10v14h-10zm0 0" fill="#fff"/><use xlink:href="#c" x="154.133" y="122.377" fill="#f00"/><path d="M204.594 152.363l10.375 28.74M212.39 152.793l8.305 22.992M224.293 129.004l-19.7 23.36M214.97 181.102l30.08 5.382M245.05 186.484l19.7-23.355M241.523 179.516l15.762-18.688M264.75 163.13l-10.38-28.743M254.37 134.387l-30.077-5.383M250.098 140.926l-24.063-4.305M224.293 129.004l-5.188-14.37" stroke-width="1.2" stroke="#000" stroke-miterlimit="10" fill="none"/><path d="M219.105 114.633l-5.19-14.367" stroke-width="1.2" stroke="#0c0" stroke-miterlimit="10" fill="none"/><path d="M201.914 93.266h12v14h-12zm0 0" fill="#fff"/><g fill="#0c0"><use xlink:href="#d" x="201.914" y="104.404"/><use xlink:href="#e" x="210.293" y="104.404"/></g><path d="M109.207 218.582L81.71 231.91M109.207 218.582l29.668-7.316M109.207 218.582l10.38 28.742M81.71 231.91l-21.17-22.035M60.54 209.875l-19.7 23.36M60.54 209.875l-25.29-17.152" stroke-width="1.2" stroke="#000" stroke-miterlimit="10" fill="none"/><path d="M73.898 102.094l-14.675-4.25" stroke-width="1.2" stroke="#00f" stroke-miterlimit="10" fill="none"/><path d="M59.223 97.844l-14.676-4.25M91.05 76.805L82.474 89.45" stroke-width="1.2" stroke="#000" stroke-miterlimit="10" fill="none"/><path d="M82.473 89.45l-8.575 12.644" stroke-width="1.2" stroke="#00f" stroke-miterlimit="10" fill="none"/><path d="M69.898 95.094h9v14h-9zm0 0" fill="#fff"/><use xlink:href="#a" x="69.898" y="106.232" fill="#00f"/><path d="M44.547 93.594l-.988-30.54M43.56 63.055l28.737-10.38M72.297 52.676l18.754 24.13" stroke-width="1.2" stroke="#000" stroke-miterlimit="10" fill="none"/></g></svg>
